X: 26
T: Cantiga 26: Non é gran cousa
N: ??
B:Cantigas de Santa Maria
F:http://www.pbm.com/~lindahl/cantigas/facsimiles/E/097small.html
F:http://www.pbm.com/~lindahl/cantigas/facsimiles/To/bob023small.gif
F:http://www.pbm.com/~lindahl/cantigas/facsimiles/To/bob024small.gif
Z:Ali Corbin <ali.corbin:gmail.com>
M: 4/4
L: 1/4
Q: 1/4=300
K: D Aeolian
V:1
%Staff 1
%%MIDI program 74
%
   G |G2 E2 | G2 G2|(AG)(FE)|D4| E2 C2|D2 F2|(F3G|F4)|
w:Non é gran cou-sa  se* sa-*be bon jo-y- zo  dar**
  A2 (AB)|A2 (AG)|(FE) D2| C2  D  E |F2 G2|E2 F2|D3
w:a   Ma-*dre do*  que* o mun-do tod' á de jo-i- gar.
%
   A | A2  A2| A2 (AB)| A3  G|F2 (GA)|(FEDE) |F3
w:Mui gran ra-zon  é*  que sá-bia de-*rei-*** to
    A | A2   A2   |A2 (AB) |A3    G|F2 (GA)|(FEDE) |F4 |
w:quen Deus troux' en  seu* corp' e de seu* pei-*** to
  G2  E2| G2  G  G |(AG) (FE) |D4 |E2  C2| D2 F2|(F3G|F4)|
w:ma-men-tou, e del  de-*spei-*to  nun-ca foi fi-llar;**
  A2 (AB)|A2 (AG)|(FE) D2| C2   D  E |F2 G2 |E2 (FE) |D4 ||
w:po-ren* de sen*  me* so-spei-to que a quis a-  von-*dar.
%
%%newpage
%%begintext center
%%Esta é como Santa Maria juigou a alma do romeu que ya a Santiago,
%%que sse matou na carreira por engano do diabo, que tornass' ao corpo e fezesse penedença.
%%
%%
%%Non é gran cousa se sabe | bon joyzo dar
%%a Madre do que o mundo | tod' á de joigar.
%%endtext
%%
%%multicol start
%%leftmargin  2cm
%%rightmargin 10.5cm
%%begintext
%%
Mui gran razon é que sábia dereito
quen Deus troux' en seu corp' e de seu peito
mamentou, e del despeito | nunca foi fillar;
poren de sen me sospeito | que a quis avondar.
%%
Non é gran cousa se sabe...
%% 
Sobr' esto, se m' oissedes, diria
dun joyzo que deu Santa Maria
por un que cad' ano ya, | oý contar,
a San Jam' en romaria, | porque se foi matar.
%%
Non é gran cousa se sabe...
%% 
Este romeu con bõa voontade
ya a Santiago de verdade;
pero desto fez maldade | ant' albergar
foi con moller sen bondade, | sen con ela casar.
%%
Non é gran cousa se sabe...
%% 
Pois esto fez, meteu-ss' ao camyno,
e non sse mãefestou o mesqyno;
e o demo mui festyno | e foi mostrar
mais branco que un armyno, | polo tost' enganar.
%%
Non é gran cousa se sabe...
%%
Semellança fillou de Santiago
e disse: «Macar m' eu de ti despago,
a salvaçon eu cha trago | ue fust' errar,
por que non cáias lago | d' iferno, sen dultar.
%%
Non é gran cousa se sabe...
%% 
Mas ante farás esto que te digo,
se sabor ás de seer meu amigo:
talla o que trages tigo | te foi deytar
en poder do enemigo, | e vai-te degolar.»
%%
Non é gran cousa se sabe...
%%
O romeu, que ssen dovida cuidava
que Santiag' aquelo lle mandava,
quanto lle mandou tallava; | lo foi tallar,
log' enton se degolava, | cuidando ben obrar.
%%
Non é gran cousa se sabe...
%%endtext
%%multicol new
%%leftmargin 12cm
%%rightmargin 2cm
%%begintext
%%
Seus companneiros, poi-lo mort' acharon,
por non lles apõer que o mataron,
foron-ss'; e logo chegaron | ma tomar
demões, que a levaron | mui toste sen tardar.
%%
Non é gran cousa se sabe...
%%
E u passavan ant' huma capela
de San Pedro, muit' aposta e bela,
San James de Conpostela | foi travar,
dizend': «Ai, falss' alcavela, | non podedes levar
%%
Non é gran cousa se sabe...
%% 
A alma do meu romeu que fillastes,
ca por razon de mi o enganastes;
gran traiçon y penssastes, | e Deus m' anpar,
pois falssament' a gãastes, | non vos pode durar.»
%%
Non é gran cousa se sabe...
%%
Responderon os demões louçãos:
«Cuja est' alma foi fez feitos vãos,
por que somos ben certãos | non dev' entrar
ante Deus, pois con sas mãos | se foi desperentar.»
%%
Non é gran cousa se sabe...
%%
Santiago diss': «Atanto façamos:
pois nos e vos est' assi rezõamos,
ao joyzo vaamos | ue non á par,
e o que julgar façamos | logo sen alongar.»
%%
Non é gran cousa se sabe...
%% 
Log' ante Santa Maria veeron
e rezõaron quanto mais poderon.
Dela tal joiz' ouveron: | fosse tornar
a alma onde a trouxeron, | por se depois salvar.
%%
Non é gran cousa se sabe...
%% 
Este joyzo logo foi comprido,
e o romeu morto foi resorgido,
de que foi pois Deus servido; | nunca cobrar
pod' o de que foi falido, | con que fora pecar.
%%
Non é gran cousa se sabe...
%%endtext
%%multicol end


%%landscape 0
